X: 3
T: The High Level
R: hornpipe
M: 4/4
L: 1/8
K: Gmaj
|:FA|BdFB DFBd|fbdf BdFB|ceAc FACE|AFcA ecAF|BdFB DFBd|fbdf BdFB|G=Bcd egf_B|AFGA B2:||:cB|Afcf Afcf|AFAc fcAc|dfBf dfBf|dBdf bfdf|egcg egcg|=eceg bgeg|fcaf =ecge|1 f=efg f2:|2 f=efg f_edc||


Tune 2261	Setting 2261

